X:43
T: Swaggering Jig/Spotted Dog
T:Swaggering Jig, the
R: slip jig
M: 9/8
L: 1/8
K: Gmaj
|:BGG AGE DEG|BAG DEG A3|BGG AGE DEG|cBA BGE D3:|
Bdd dge dBG|Bdd dBG A3| Bdd dge dBG|cBA BGE D3|
Bdd dge dBG|Bdd dBG A3| gfe fdB cBA|cBA BGE D3||
T: Spotted Dog, The
R: Slip Jig
M: 6/8
L: 1/8
K: Amaj
|:E2A ABc|BAF AFE|F2B Bce|fec BAF|
E2A ABc|BAF A2a|faa eaa|ABc B2A:|
|:cee ece|fec ecA|cee fec|EFA B2A|
cee ece|fec e2a|faa eaa|ABc B2A:|

